X:5004
T:The Singing Cement Mixer
M:6/8
L:1/8
C:Aidan Crossey
R:Double Jig
K:D
|:dAF BAF|GFE FED|dAF BAF|AGF E2A|
dAF BAF|GFE FED|FGA BAG|FGE D3:||
|:def dBA|Bcd AFD|def dBA|Bcd ecA|
def dBA|Bcd A^GG|FGA BAG|FGE D3:||
